svgs/solid/person-skiing-nordic.svg

<svg xmlns="http://www.w3.org/2000/svg" viewBox="0 0 576 512"><!-- Font Awesome Pro 6.0.0-alpha2 by @fontawesome - https://fontawesome.com License - https://fontawesome.com/license (Commercial License) --><path d="M336 96C362.5 96 384 74.5 384 48S362.5 0 336 0S288 21.5 288 48S309.5 96 336 96ZM552 416C538.75 416 528 426.75 528 440S517.25 464 504 464H434.5L460 285.625C471.75 280.875 480.125 269.375 480.125 256C480.125 238.25 465.75 224 448.125 224H404.125L378 170.75C365.5 145.25 342.5 126.625 316.25 119.875L245 98.75C216.75 91.875 187.25 98.25 164.25 115.75L124.5 146.25C110.5 156.875 107.75 177 118.625 191.125C119.25 192 120.25 192.375 121 193.25L66.875 464H24C10.75 464 0 474.75 0 488S10.75 512 24 512H504C543.75 512 576 479.75 576 440C576 426.75 565.25 416 552 416ZM291.5 464H194.625L237.75 373L215.75 360C203.625 352.75 193.75 343.125 186.25 332.25L123.75 464H99.5L151.75 202.625C155.875 201.625 159.875 199.75 163.5 197L203.25 166.625C210.875 160.75 220.625 158.625 228.5 160.5L243.25 164.875L205.75 252.25C193.125 281.75 204.375 316.25 232 332.625L317 382.75L291.5 464ZM402.125 464H358.5L382.125 388.5C388 367.75 379.25 345.375 360.5 334.125L299.25 298L330.625 219.75L350.875 261.125C358.875 277.375 375.75 288 394 288H427.25L402.125 464Z"/></svg>

<svg xmlns="http://www.w3.org/2000/svg" viewBox="0 0 576 512"><!--! Font Awesome Pro 6.0.0-alpha3 by @fontawesome - https://fontawesome.com License - https://fontawesome.com/license (Commercial License) --><path d="M336 96C362.5 96 384 74.5 384 48S362.5 0 336 0S288 21.5 288 48S309.5 96 336 96zM552 416c-13.25 0-24 10.75-24 24s-10.75 24-24 24h-69.5L460 285.6c11.75-4.75 20.04-16.31 20.04-29.69c0-17.75-14.38-31.95-32.01-31.95l-43.9-.0392l-26.11-53.22c-12.5-25.5-35.5-44.12-61.75-50.87l-71.22-21.15c-28.25-6.875-57.75-.4701-80.75 17.03L124.6 146.2c-14 10.63-16.88 30.82-6.005 44.95C119.2 192 120.2 192.4 121 193.2L66.88 464H24C10.75 464 0 474.8 0 488S10.75 512 24 512h480c39.75 0 72-32.25 72-72C576 426.8 565.3 416 552 416zM291.6 463.9H194.7l43.1-90.97l-21.99-12.1c-12.13-7.25-21.99-16.89-29.49-27.77l-62.48 131.7L99.5 464l52.25-261.4c4.125-1 8.112-2.846 11.74-5.596l39.81-30.45C210.9 160.7 220.7 158.6 228.6 160.5l14.73 4.383L205.8 252.2c-12.63 29.5-1.358 63.96 26.27 80.34l84.97 50.15L291.6 463.9zM402.1 464l-43.58-.125l23.6-75.48c5.875-20.75-2.856-43.12-21.61-54.37l-61.21-36.1l31.32-78.23l20.26 41.36c8 16.25 24.86 26.89 43.11 26.89L427.3 288L402.1 464z"/></svg>
